src/assets/svgs/layout/top-left.svg

<svg fill="none" height="308" viewBox="0 0 308 308" width="308" xmlns="http://www.w3.org/2000/svg"><g fill="#cb8bb3"><path d="m227.099 220.484-4.865-4.865c37.842-37.842 37.842-99.417 0-137.2586-37.843-37.8426-99.417-37.8426-137.2592 0-37.8423 37.8426-37.8423 99.4166 0 137.2596l-4.8649 4.864c-40.5251-40.525-40.5255-106.464-.0007-146.9892 40.5248-40.5251 106.4648-40.5248 146.9898.0004 40.525 40.5248 40.525 106.4638 0 146.9888z"/><path d="m216.304 209.69-4.865-4.866c31.891-31.891 31.891-83.779 0-115.6692-31.891-31.8907-83.779-31.891-115.6696 0-31.8899 31.8902-31.8899 83.7802.0004 115.6702l-4.8652 4.865c-34.5732-34.573-34.5729-90.828-.0004-125.4005 34.5728-34.5731 90.8278-34.5728 125.4008.0004 34.573 34.5721 34.573 90.8271-.001 125.4001z"/><path d="m204.265 197.65-4.865-4.865c25.252-25.252 25.252-66.339 0-91.591-25.252-25.2525-66.339-25.2529-91.592 0-25.2516 25.251-25.2516 66.339.001 91.591l-4.865 4.865c-27.9354-27.935-27.935-73.388-.001-101.3221 27.935-27.9346 73.387-27.9342 101.322.0007 27.934 27.9344 27.934 73.3874 0 101.3214z"/></g><path d="m234.187 226.302c-44.522 44.522-116.966 44.523-161.4892 0l40.8672-40.867c21.988 21.988 57.766 21.989 79.754 0l40.867 40.867z" fill="#8bb5cb"/></svg>

<svg width="308" height="308" viewBox="0 0 308 308" fill="none" xmlns="http://www.w3.org/2000/svg">
<path d="M227.099 220.484L222.234 215.619C260.076 177.777 260.076 116.202 222.234 78.3604C184.391 40.5178 122.817 40.5178 84.9748 78.3604C47.1325 116.203 47.1325 177.777 84.9748 215.62L80.1099 220.484C39.5848 179.959 39.5844 114.02 80.1092 73.4948C120.634 32.9697 186.574 32.97 227.099 73.4952C267.624 114.02 267.624 179.959 227.099 220.484Z" fill="#CB8BB3"/>
<path d="M216.304 209.69L211.439 204.824C243.33 172.933 243.33 121.045 211.439 89.1548C179.548 57.2641 127.66 57.2638 95.7694 89.1548C63.8795 121.045 63.8795 172.935 95.7698 204.825L90.9046 209.69C56.3314 175.117 56.3317 118.862 90.9042 84.2895C125.477 49.7164 181.732 49.7167 216.305 84.2899C250.878 118.862 250.878 175.117 216.304 209.69Z" fill="#CB8BB3"/>
<path d="M204.265 197.65L199.4 192.785C224.652 167.533 224.652 126.446 199.4 101.194C174.148 75.9415 133.061 75.9411 107.808 101.194C82.5564 126.445 82.5564 167.533 107.809 192.785L102.944 197.65C75.0086 169.715 75.009 124.262 102.943 96.3279C130.878 68.3933 176.33 68.3937 204.265 96.3286C232.199 124.263 232.199 169.716 204.265 197.65Z" fill="#CB8BB3"/>
<path d="M234.187 226.302C189.665 270.824 117.221 270.825 72.6978 226.302L113.565 185.435C135.553 207.423 171.331 207.424 193.319 185.435L234.186 226.302L234.187 226.302Z" fill="#8BB5CB"/>
</svg>
